images/Icons/hp-empty.svg

<?xml version="1.0" encoding="UTF-8" standalone="no"?>
<svg
   xmlns:dc="http://purl.org/dc/elements/1.1/"
   xmlns:cc="http://creativecommons.org/ns#"
   xmlns:rdf="http://www.w3.org/1999/02/22-rdf-syntax-ns#"
   xmlns:svg="http://www.w3.org/2000/svg"
   xmlns="http://www.w3.org/2000/svg"
   xmlns:sodipodi="http://sodipodi.sourceforge.net/DTD/sodipodi-0.dtd"
   xmlns:inkscape="http://www.inkscape.org/namespaces/inkscape"
   version="1.1"
   x="0px"
   y="0px"
   viewBox="0 0 120 100"
   enable-background="new 0 0 1000 1000"
   xml:space="preserve"
   id="svg10"
   sodipodi:docname="hp-empty.svg"
   width="120mm"
   height="100mm"
   inkscape:version="1.0.2-2 (e86c870879, 2021-01-15)"><defs
   id="defs14" /><sodipodi:namedview
   pagecolor="#ffffff"
   bordercolor="#666666"
   borderopacity="1"
   objecttolerance="10"
   gridtolerance="10"
   guidetolerance="10"
   inkscape:pageopacity="0"
   inkscape:pageshadow="2"
   inkscape:window-width="1920"
   inkscape:window-height="1001"
   id="namedview12"
   showgrid="false"
   units="mm"
   inkscape:document-units="mm"
   inkscape:zoom="1.636"
   inkscape:cx="246.56453"
   inkscape:cy="219.18627"
   inkscape:window-x="-9"
   inkscape:window-y="-9"
   inkscape:window-maximized="1"
   inkscape:current-layer="svg10"
   inkscape:document-rotation="0" />
<metadata
   id="metadata2"> Svg Vector Icons : http://www.onlinewebfonts.com/icon <rdf:RDF><cc:Work
     rdf:about=""><dc:format>image/svg+xml</dc:format><dc:type
       rdf:resource="http://purl.org/dc/dcmitype/StillImage" /><dc:title></dc:title></cc:Work></rdf:RDF></metadata>
<g
   id="g8"
   transform="matrix(0.10204108,0,0,0.10204078,8.9795892,-1.0206993)"><g
     transform="matrix(0.1,0,0,-0.1,0,511)"
     id="g6"><path
       d="m 2634.1,4429.9 c -38.4,-6.1 -159.5,-28.3 -270.6,-50.5 C 1214.6,4141.1 400.9,3272.9 146.4,2017 106.1,1815 100,1728.2 100,1322.4 102,916.6 106.1,831.7 146.4,648 320.1,-149.6 695.7,-815.9 1349.9,-1488.3 c 563.3,-581.5 1167.1,-1039.9 2404.8,-1823.3 551.2,-347.3 696.6,-450.3 993.4,-700.7 l 246.3,-206 238.3,201.9 c 268.5,228.2 486.6,379.6 1187.3,825.8 1058,674.4 1599.2,1084.3 2132.2,1615.3 579.5,577.5 959.1,1159 1163,1776.9 149.5,452.4 198,787.6 181.8,1252 -58.6,1591.1 -1019.7,2748.1 -2461.4,2960.1 -292.8,42.4 -787.5,28.3 -1062.1,-30.3 -486.6,-103 -920.7,-319 -1253.9,-619.9 L 4996.4,3652.4 4851,3777.6 c -347.3,298.8 -769.3,506.8 -1237.7,607.8 -177.6,38.4 -795.5,66.7 -979.2,44.5 z m 765.2,-583.6 c 605.8,-98.9 1138.8,-442.2 1472,-947 56.5,-88.9 109,-169.6 115.1,-181.7 6.1,-16.2 14.1,-16.2 20.2,0 191.8,387.7 644.1,807.7 1056,977.3 488.7,204 1094.4,238.3 1615.4,88.9 842,-240.3 1429.6,-936.9 1611.3,-1916.2 56.5,-296.8 52.5,-835.9 -8.1,-1112.6 -208,-967.2 -827.9,-1793 -2009.1,-2681.4 -270.6,-201.9 -912.7,-632 -1544.7,-1033.8 -189.8,-121.2 -434.1,-284.7 -541.1,-363.5 l -193.8,-145.4 -135.3,103 c -145.4,111.1 -458.4,317 -1142.9,757.2 -518.9,331.2 -953.1,636 -1292.3,908.6 -298.8,240.3 -868.2,803.6 -1039.8,1031.8 -353.4,470.4 -565.4,912.6 -676.4,1415.4 -50.5,236.2 -62.6,751.1 -22.2,1025.7 153.4,1043.9 789.4,1807.2 1692,2031.3 309,76.8 706.7,92.9 1023.7,42.4 z"
       id="path4" /></g></g>
</svg>

<?xml version="1.0" encoding="utf-8"?>
<!-- Svg Vector Icons : http://www.onlinewebfonts.com/icon -->
<!DOCTYPE svg PUBLIC "-//W3C//DTD SVG 1.1//EN" "http://www.w3.org/Graphics/SVG/1.1/DTD/svg11.dtd">
<svg version="1.1" xmlns="http://www.w3.org/2000/svg" xmlns:xlink="http://www.w3.org/1999/xlink" x="0px" y="0px" viewBox="0 0 1000 1000" enable-background="new 0 0 1000 1000" xml:space="preserve">
<metadata> Svg Vector Icons : http://www.onlinewebfonts.com/icon </metadata>
<g><g transform="translate(0.000000,511.000000) scale(0.100000,-0.100000)"><path d="M2634.1,4429.9c-38.4-6.1-159.5-28.3-270.6-50.5C1214.6,4141.1,400.9,3272.9,146.4,2017C106.1,1815,100,1728.2,100,1322.4c2-405.8,6.1-490.7,46.4-674.4C320.1-149.6,695.7-815.9,1349.9-1488.3c563.3-581.5,1167.1-1039.9,2404.8-1823.3c551.2-347.3,696.6-450.3,993.4-700.7l246.3-206l238.3,201.9c268.5,228.2,486.6,379.6,1187.3,825.8c1058,674.4,1599.2,1084.3,2132.2,1615.3c579.5,577.5,959.1,1159,1163,1776.9C9864.7,654,9913.2,989.2,9897,1453.6c-58.6,1591.1-1019.7,2748.1-2461.4,2960.1c-292.8,42.4-787.5,28.3-1062.1-30.3c-486.6-103-920.7-319-1253.9-619.9l-123.2-111.1l-145.4,125.2c-347.3,298.8-769.3,506.8-1237.7,607.8C3435.7,4423.8,2817.8,4452.1,2634.1,4429.9z M3399.3,3846.3c605.8-98.9,1138.8-442.2,1472-947c56.5-88.9,109-169.6,115.1-181.7c6.1-16.2,14.1-16.2,20.2,0c191.8,387.7,644.1,807.7,1056,977.3c488.7,204,1094.4,238.3,1615.4,88.9c842-240.3,1429.6-936.9,1611.3-1916.2c56.5-296.8,52.5-835.9-8.1-1112.6c-208-967.2-827.9-1793-2009.1-2681.4c-270.6-201.9-912.7-632-1544.7-1033.8c-189.8-121.2-434.1-284.7-541.1-363.5l-193.8-145.4l-135.3,103c-145.4,111.1-458.4,317-1142.9,757.2c-518.9,331.2-953.1,636-1292.3,908.6C2123.2-1460,1553.8-896.7,1382.2-668.5C1028.8-198.1,816.8,244.1,705.8,746.9c-50.5,236.2-62.6,751.1-22.2,1025.7C837,2816.5,1473,3579.8,2375.6,3803.9C2684.6,3880.7,3082.3,3896.8,3399.3,3846.3z"/></g></g>
</svg>
